X: 115
M: C
L: 1/8
K: D
f |\
d<AF<A D<Ad>B | A<DA>F E<ee<f |\
d<AF<A E<AD>f | d<BA>F A<dd<f |
d<AF<A D<Ad>B | A<DA>F E>gTf>e |\
f<ae<f d>BA>F | A<Bd>e | f<dd |]


